dist/images/company/logo.svg

<svg width="169" height="26" viewBox="0 0 169 26" fill="none" xmlns="http://www.w3.org/2000/svg">
<path d="M136.042 12.4254C132.601 6.31343 130.021 3.15672 127.44 0.402985H123.536V25.1866H127.705V7.18657C130.55 10.6791 135.645 19.0075 136.24 25.2537H140.277V0.470149H136.108V12.4254H136.042Z" fill="#5A1404"/>
<path d="M156.422 12.4254C152.981 6.31343 150.4 3.15672 147.82 0.402985H143.916V25.1866H148.085V7.18657C150.93 10.6791 156.025 19.0075 156.62 25.2537H160.657V0.470149H156.488V12.4254H156.422Z" fill="#5A1404"/>
<path d="M77.4167 7.25374C77.4167 3.29105 74.6376 0.470154 69.3441 0.470154H62.3965V25.2537H66.8298V16.791C67.8884 16.4552 68.8148 16.1194 69.675 15.7836L73.5789 25.1866H78.74L73.5789 13.9702C76.1595 12.3582 77.4167 10.4105 77.4167 7.25374ZM66.8298 4.63433H68.9471C71.5939 4.63433 72.9834 5.6418 72.9834 7.45523C72.9834 10.5448 69.4765 11.6866 66.8298 12.4925V4.63433Z" fill="#5A1404"/>
<path d="M9.32972 0C3.30841 0 0 5.30597 0 12.8284C0 20.4179 3.30841 25.6567 9.32972 25.6567C15.4172 25.6567 18.7256 20.4179 18.7256 12.8284C18.7256 5.30597 15.4172 0 9.32972 0ZM9.32972 21.4254C5.69047 21.4254 4.56561 17.3955 4.56561 12.8284C4.56561 8.26119 5.69047 4.23134 9.32972 4.23134C12.969 4.23134 14.16 8.26119 14.16 12.8284C14.16 17.3955 12.969 21.4254 9.32972 21.4254Z" fill="#5A1404"/>
<path d="M25.6735 0.470154H21.2402V25.2537H32.158V20.8209H25.6735V0.470154Z" fill="#5A1404"/>
<path d="M168.729 0.470154H164.296V25.2537H168.729V0.470154Z" fill="#5A1404"/>
<path d="M30.7681 0.470154V4.90299H35.3337V25.2537H39.7669V4.90299H44.2664V0.470154H30.7681Z" fill="#5A1404"/>
<path d="M95.8779 0.470154C94.2237 4.56717 92.768 8.19403 91.0477 14.7761C89.3273 8.12687 87.9378 4.56717 86.2174 0.470154H80.9239L79.8652 25.2537H84.0338L84.8279 7.3209C86.5482 11.8209 88.2686 17.597 88.8641 20.6194H93.1651C93.7606 17.6642 95.4809 11.8881 97.2013 7.3209L97.9953 25.2537H102.164L101.105 0.470154H95.8779Z" fill="#5A1404"/>
<path d="M109.244 19.0075H116.191L117.779 25.2537H122.213L115.596 0.470154H109.972L103.289 25.2537H107.722L109.244 19.0075ZM112.751 5.17165L115.265 15.0448H110.302L112.751 5.17165Z" fill="#5A1404"/>
<path d="M46.3179 0.470154V25.2537H59.6839V20.8209H50.7511V14.7761H58.2943V10.4105H50.7511V4.90299H59.6839V0.470154H46.3179Z" fill="#5A1404"/>
</svg>

<svg width="169" height="26" fill="none" xmlns="http://www.w3.org/2000/svg"><path d="M136.042 12.425c-3.441-6.112-6.021-9.268-8.602-12.022h-3.904v24.784h4.169v-18c2.845 3.492 7.94 11.82 8.535 18.067h4.037V.47h-4.169v11.955h-.066zM156.422 12.425C152.981 6.313 150.4 3.157 147.82.403h-3.904v24.784h4.169v-18c2.845 3.492 7.94 11.82 8.535 18.067h4.037V.47h-4.169v11.955h-.066zM77.417 7.254c0-3.963-2.78-6.784-8.073-6.784h-6.947v24.784h4.433V16.79a45.771 45.771 0 0 0 2.845-1.007l3.904 9.403h5.161L73.579 13.97c2.58-1.612 3.838-3.56 3.838-6.716zM66.83 4.634h2.117c2.647 0 4.036 1.008 4.036 2.821 0 3.09-3.507 4.232-6.153 5.037V4.635zM9.33 0C3.308 0 0 5.306 0 12.828c0 7.59 3.308 12.829 9.33 12.829 6.087 0 9.396-5.24 9.396-12.829C18.726 5.306 15.417 0 9.33 0zm0 21.425c-3.64 0-4.764-4.03-4.764-8.597 0-4.567 1.124-8.597 4.764-8.597 3.639 0 4.83 4.03 4.83 8.597 0 4.567-1.191 8.597-4.83 8.597zM25.674.47H21.24v24.784h10.918V20.82h-6.485V.47zM168.729.47h-4.433v24.784h4.433V.47zM30.768.47v4.433h4.566v20.35h4.433V4.904h4.5V.47H30.767zM95.878.47c-1.654 4.097-3.11 7.724-4.83 14.306-1.72-6.65-3.11-10.209-4.83-14.306h-5.294l-1.059 24.784h4.169l.794-17.933c1.72 4.5 3.44 10.276 4.036 13.298h4.301c.596-2.955 2.316-8.73 4.036-13.298l.794 17.933h4.169L101.105.47h-5.227zM109.244 19.008h6.947l1.588 6.246h4.434L115.596.47h-5.624l-6.683 24.784h4.433l1.522-6.247zm3.507-13.836 2.514 9.873h-4.963l2.449-9.873zM46.318.47v24.784h13.366V20.82H50.75v-6.045h7.543v-4.365h-7.543V4.903h8.933V.47H46.318z" fill="#5A1404"/></svg>
